X:16017
T:Percy Brown's Polka
R:Polka
C:Trad.
O:England, Norfolk
Z:Paul Hardy's Session Tunebook 2015 (see www.paulhardy.net). Creative Commons cc by-nc-sa licenced.
M:4/4
L:1/8
Q:1/4=180
K:G
"G"D2B2 BA B2| D2B2 BA B2|D2B2 A2G2|"C"F2E2"D"E2D2|"Am"E2c2 cB c2|
[1"Am"E2c2cB A2|"D"D3E F2G2|A2F2E2D2:|[2"Am"B2A4A2|"D"G2F2E2F2|"G"G4G2|
|:FE|"G"D2G2B3d|"D7"c2A2 "G"B3G|"D"B2A2A3B|"G"A2G2G2:|
A2|"G"B2D2DE D2|"C"E2c2c3B|"Am"c2E2EF E2|"D"D2d2d3c|
"G"B2D2DE D2|"C"E2c2cB c2|"Am"B2A2 "D7"E2F2|"G"G4G4|]

